X:239
T: FREUND ICH BIN ZUFRUEDEN GEH ES WIE ES WILL
N: B0287
O: Europa, Mitteleuropa, Deutschland, Rheinland; Nassau
R: Stimmungs - Lied, Freude, Zufriedenheit
M: 6/8
L: 1/8
K: F
 | c2cdcc | A3F3
G2Gc2c | A3z3
c2cdcc | A3F3
G2Gc2E | F3z3
G2GGA=B | c3e3
d2dfd=B | c3z3
c2cdcc | f3d3
c2ccBG | F3z3

